X: 305539
M: 2/4
L: 1/16
K: G
|:\
gaba agfe | edcd edcB | cAAB cAGB | cAAB cAA2 |\
gaba agfe | edcd ecBA | BGGA BGGA | BGGA BAG2 :|
|:\
|:\


